img/icon/icon-play-blue.svg

<svg width="24" height="24" viewBox="0 0 24 24" fill="none" xmlns="http://www.w3.org/2000/svg">
<path fill-rule="evenodd" clip-rule="evenodd" d="M24 12C24 18.628 18.628 24 12 24C5.372 24 0 18.628 0 12C0 5.372 5.372 0 12 0C18.628 0 24 5.372 24 12ZM15.764 11.1387L10.588 8.07733C9.92133 7.68267 9.07867 8.164 9.07867 8.93867V15.06C9.07867 15.8347 9.92133 16.316 10.588 15.9213L15.764 12.86C16.4187 12.4733 16.4187 11.5253 15.764 11.1387Z" fill="url(#paint0_linear)"/>
<path fill-rule="evenodd" clip-rule="evenodd" d="M12 24C18.628 24 24 18.628 24 12C24 5.372 18.628 0 12 0C5.372 0 0 5.372 0 12C0 18.628 5.372 24 12 24ZM15.764 11.1387L10.588 8.07733C9.92133 7.68267 9.07867 8.164 9.07867 8.93867V15.06C9.07867 15.8347 9.92133 16.316 10.588 15.9213L15.764 12.86C16.4187 12.4733 16.4187 11.5253 15.764 11.1387Z" fill="url(#paint1_linear)"/>
<defs>
<linearGradient id="paint0_linear" x1="0" y1="0" x2="0" y2="24" gradientUnits="userSpaceOnUse">
<stop stop-color="#5986FB"/>
<stop offset="1" stop-color="#2D4EF5"/>
</linearGradient>
<linearGradient id="paint1_linear" x1="0" y1="0" x2="0" y2="24" gradientUnits="userSpaceOnUse">
<stop stop-color="#5986FB"/>
<stop offset="1" stop-color="#2D4EF5"/>
</linearGradient>
</defs>
</svg>

<svg width="24" height="24" fill="none" xmlns="http://www.w3.org/2000/svg"><path fill-rule="evenodd" clip-rule="evenodd" d="M24 12c0 6.628-5.372 12-12 12S0 18.628 0 12 5.372 0 12 0s12 5.372 12 12zm-8.236-.861l-5.176-3.062a1 1 0 0 0-1.51.862v6.121a1 1 0 0 0 1.51.861l5.176-3.061a1 1 0 0 0 0-1.721z" fill="url(#paint0_linear)"/><path fill-rule="evenodd" clip-rule="evenodd" d="M12 24c6.628 0 12-5.372 12-12S18.628 0 12 0 0 5.372 0 12s5.372 12 12 12zm3.764-12.861l-5.176-3.062a1 1 0 0 0-1.51.862v6.121a1 1 0 0 0 1.51.861l5.176-3.061a1 1 0 0 0 0-1.721z" fill="url(#paint1_linear)"/><defs><linearGradient id="paint0_linear" x2="0" y2="24" gradientUnits="userSpaceOnUse"><stop stop-color="#5986FB"/><stop offset="1" stop-color="#2D4EF5"/></linearGradient><linearGradient id="paint1_linear" x2="0" y2="24" gradientUnits="userSpaceOnUse"><stop stop-color="#5986FB"/><stop offset="1" stop-color="#2D4EF5"/></linearGradient></defs></svg>
